inst/assets/svg/wi-night-alt-snow.svg

<?xml version="1.0" encoding="UTF-8"?>
<svg xmlns="http://www.w3.org/2000/svg" xmlns:xlink="http://www.w3.org/1999/xlink" width="30pt" height="30pt" viewBox="0 0 30 30" version="1.1">
<g id="surface676">
<path style=" stroke:none;fill-rule:nonzero;fill:rgb(0%,0%,0%);fill-opacity:1;" d="M 4.070313 16.929688 C 4.070313 18.261719 4.539063 19.398438 5.46875 20.359375 C 6.398438 21.320313 7.539063 21.828125 8.871094 21.871094 C 8.988281 21.871094 9.050781 21.808594 9.050781 21.699219 L 9.050781 20.359375 C 9.050781 20.25 8.988281 20.191406 8.871094 20.191406 C 8.019531 20.148438 7.289063 19.800781 6.691406 19.160156 C 6.078125 18.519531 5.78125 17.769531 5.78125 16.921875 C 5.78125 16.070313 6.058594 15.339844 6.628906 14.71875 C 7.199219 14.101563 7.898438 13.761719 8.730469 13.691406 L 9.261719 13.621094 C 9.390625 13.621094 9.460938 13.558594 9.460938 13.449219 L 9.53125 12.929688 C 9.640625 11.839844 10.089844 10.921875 10.898438 10.179688 C 11.710938 9.441406 12.660156 9.070313 13.761719 9.070313 C 14.851563 9.070313 15.800781 9.441406 16.621094 10.171875 C 17.441406 10.898438 17.898438 11.808594 18.019531 12.890625 L 18.101563 13.460938 C 18.101563 13.578125 18.160156 13.640625 18.269531 13.640625 L 19.890625 13.640625 C 20.800781 13.640625 21.570313 13.960938 22.21875 14.609375 C 22.871094 15.25 23.191406 16.019531 23.191406 16.921875 C 23.191406 17.769531 22.890625 18.519531 22.28125 19.160156 C 21.671875 19.800781 20.949219 20.140625 20.101563 20.191406 C 19.960938 20.191406 19.890625 20.25 19.890625 20.359375 L 19.890625 21.699219 C 19.890625 21.808594 19.960938 21.871094 20.101563 21.871094 C 20.980469 21.851563 21.78125 21.609375 22.511719 21.160156 C 23.238281 20.710938 23.820313 20.109375 24.238281 19.359375 C 24.660156 18.609375 24.871094 17.800781 24.871094 16.929688 C 24.871094 16.019531 24.648438 15.191406 24.21875 14.449219 C 24.960938 13.789063 25.460938 12.929688 25.738281 11.871094 L 25.910156 11.148438 C 25.921875 11.140625 25.929688 11.109375 25.929688 11.070313 C 25.929688 11 25.878906 10.941406 25.769531 10.910156 L 25.160156 10.738281 C 24.71875 10.609375 24.328125 10.421875 23.988281 10.171875 C 23.648438 9.921875 23.378906 9.640625 23.179688 9.328125 C 22.980469 9.019531 22.839844 8.710938 22.738281 8.378906 C 22.640625 8.058594 22.589844 7.738281 22.589844 7.429688 C 22.589844 7.160156 22.621094 6.871094 22.691406 6.570313 L 22.800781 5.949219 C 22.820313 5.859375 22.78125 5.78125 22.660156 5.730469 L 21.859375 5.488281 C 21.421875 5.378906 21.011719 5.328125 20.609375 5.328125 C 20.238281 5.328125 19.871094 5.371094 19.488281 5.460938 C 19.109375 5.550781 18.71875 5.679688 18.308594 5.871094 C 17.898438 6.058594 17.511719 6.320313 17.128906 6.671875 C 16.75 7.019531 16.421875 7.421875 16.140625 7.890625 C 15.328125 7.558594 14.539063 7.390625 13.761719 7.390625 C 12.351563 7.390625 11.089844 7.828125 10 8.710938 C 8.910156 9.589844 8.199219 10.710938 7.890625 12.078125 C 6.769531 12.359375 5.851563 12.949219 5.140625 13.839844 C 4.429688 14.738281 4.070313 15.769531 4.070313 16.929688 Z M 10.460938 21.019531 C 10.460938 21.261719 10.539063 21.460938 10.699219 21.621094 C 10.859375 21.789063 11.050781 21.871094 11.289063 21.871094 C 11.53125 21.871094 11.730469 21.789063 11.890625 21.621094 C 12.050781 21.449219 12.128906 21.25 12.128906 21.019531 C 12.128906 20.800781 12.050781 20.601563 11.890625 20.441406 C 11.730469 20.28125 11.53125 20.199219 11.289063 20.199219 C 11.058594 20.199219 10.859375 20.28125 10.699219 20.441406 C 10.539063 20.601563 10.460938 20.789063 10.460938 21.019531 Z M 10.460938 24.660156 C 10.460938 24.890625 10.539063 25.078125 10.699219 25.238281 C 10.859375 25.398438 11.058594 25.480469 11.28125 25.480469 C 11.519531 25.480469 11.71875 25.398438 11.878906 25.25 C 12.039063 25.089844 12.121094 24.898438 12.121094 24.660156 C 12.121094 24.421875 12.039063 24.230469 11.878906 24.070313 C 11.71875 23.910156 11.519531 23.839844 11.28125 23.839844 C 11.039063 23.839844 10.851563 23.921875 10.691406 24.070313 C 10.539063 24.21875 10.460938 24.421875 10.460938 24.660156 Z M 13.660156 22.960938 C 13.660156 23.199219 13.738281 23.398438 13.898438 23.550781 C 14.058594 23.710938 14.261719 23.789063 14.480469 23.789063 C 14.71875 23.789063 14.921875 23.710938 15.089844 23.550781 C 15.261719 23.390625 15.339844 23.191406 15.339844 22.960938 C 15.339844 22.71875 15.261719 22.519531 15.089844 22.351563 C 14.921875 22.179688 14.71875 22.089844 14.480469 22.089844 C 14.261719 22.089844 14.070313 22.179688 13.898438 22.351563 C 13.730469 22.519531 13.660156 22.71875 13.660156 22.960938 Z M 13.660156 19.320313 C 13.660156 19.558594 13.738281 19.75 13.898438 19.898438 C 14.058594 20.058594 14.261719 20.140625 14.480469 20.140625 C 14.71875 20.140625 14.929688 20.058594 15.089844 19.910156 C 15.25 19.761719 15.339844 19.558594 15.339844 19.320313 C 15.339844 19.089844 15.261719 18.890625 15.089844 18.71875 C 14.921875 18.550781 14.71875 18.46875 14.480469 18.46875 C 14.261719 18.46875 14.058594 18.550781 13.898438 18.71875 C 13.738281 18.890625 13.660156 19.089844 13.660156 19.320313 Z M 13.660156 26.628906 C 13.660156 26.851563 13.738281 27.039063 13.898438 27.199219 C 14.070313 27.371094 14.261719 27.449219 14.480469 27.449219 C 14.71875 27.449219 14.921875 27.371094 15.089844 27.210938 C 15.261719 27.050781 15.339844 26.859375 15.339844 26.621094 C 15.339844 26.378906 15.261719 26.179688 15.089844 26.011719 C 14.921875 25.839844 14.71875 25.75 14.480469 25.75 C 14.261719 25.75 14.070313 25.839844 13.898438 26.011719 C 13.75 26.191406 13.660156 26.398438 13.660156 26.628906 Z M 16.898438 21.019531 C 16.898438 21.261719 16.980469 21.460938 17.148438 21.621094 C 17.320313 21.78125 17.511719 21.871094 17.75 21.871094 C 17.988281 21.871094 18.179688 21.789063 18.339844 21.621094 C 18.5 21.449219 18.578125 21.25 18.578125 21.019531 C 18.578125 20.800781 18.5 20.601563 18.339844 20.441406 C 18.179688 20.28125 17.988281 20.199219 17.75 20.199219 C 17.511719 20.199219 17.320313 20.28125 17.148438 20.441406 C 16.980469 20.601563 16.898438 20.789063 16.898438 21.019531 Z M 16.898438 24.660156 C 16.898438 24.890625 16.980469 25.078125 17.140625 25.238281 C 17.300781 25.398438 17.5 25.480469 17.738281 25.480469 C 17.980469 25.480469 18.171875 25.398438 18.328125 25.238281 C 18.488281 25.078125 18.558594 24.890625 18.558594 24.648438 C 18.558594 24.410156 18.480469 24.21875 18.328125 24.058594 C 18.171875 23.898438 17.980469 23.828125 17.738281 23.828125 C 17.5 23.828125 17.300781 23.910156 17.140625 24.058594 C 16.980469 24.21875 16.898438 24.421875 16.898438 24.660156 Z M 17.578125 8.769531 C 17.890625 8.230469 18.328125 7.808594 18.878906 7.511719 C 19.429688 7.210938 20 7.058594 20.589844 7.050781 C 20.738281 7.050781 20.851563 7.058594 20.921875 7.070313 L 20.921875 7.378906 C 20.921875 8.351563 21.179688 9.261719 21.699219 10.121094 C 22.21875 10.980469 22.949219 11.628906 23.871094 12.078125 C 23.710938 12.441406 23.460938 12.800781 23.109375 13.148438 C 22.21875 12.359375 21.148438 11.96875 19.878906 11.96875 L 19.570313 11.96875 C 19.300781 10.738281 18.640625 9.679688 17.578125 8.769531 Z M 17.578125 8.769531 "/>
</g>
</svg>

<?xml version="1.0" encoding="utf-8"?>
<!-- Generator: Adobe Illustrator 22.0.1, SVG Export Plug-In . SVG Version: 6.00 Build 0)  -->
<svg version="1.1" id="Layer_1" xmlns="http://www.w3.org/2000/svg" xmlns:xlink="http://www.w3.org/1999/xlink" x="0px" y="0px"
	 viewBox="0 0 30 30" style="enable-background:new 0 0 30 30;" xml:space="preserve">
<path d="M4.07,16.93c0,1.33,0.47,2.47,1.4,3.43s2.07,1.47,3.4,1.51c0.12,0,0.18-0.06,0.18-0.17v-1.34c0-0.11-0.06-0.17-0.18-0.17
	c-0.85-0.04-1.58-0.39-2.18-1.03c-0.61-0.64-0.91-1.39-0.91-2.24c0-0.85,0.28-1.58,0.85-2.2c0.57-0.62,1.27-0.96,2.1-1.03l0.53-0.07
	c0.13,0,0.2-0.06,0.2-0.17l0.07-0.52c0.11-1.09,0.56-2.01,1.37-2.75s1.76-1.11,2.86-1.11c1.09,0,2.04,0.37,2.86,1.1
	c0.82,0.73,1.28,1.64,1.4,2.72l0.08,0.57c0,0.12,0.06,0.18,0.17,0.18h1.62c0.91,0,1.68,0.32,2.33,0.97
	c0.65,0.64,0.97,1.41,0.97,2.31c0,0.85-0.3,1.6-0.91,2.24c-0.61,0.64-1.33,0.98-2.18,1.03c-0.14,0-0.21,0.06-0.21,0.17v1.34
	c0,0.11,0.07,0.17,0.21,0.17c0.88-0.02,1.68-0.26,2.41-0.71c0.73-0.45,1.31-1.05,1.73-1.8s0.63-1.56,0.63-2.43
	c0-0.91-0.22-1.74-0.65-2.48c0.74-0.66,1.24-1.52,1.52-2.58l0.17-0.72c0.01-0.01,0.02-0.04,0.02-0.08c0-0.07-0.05-0.13-0.16-0.16
	l-0.61-0.17c-0.44-0.13-0.83-0.32-1.17-0.57s-0.61-0.53-0.81-0.84c-0.2-0.31-0.34-0.62-0.44-0.95c-0.1-0.32-0.15-0.64-0.15-0.95
	c0-0.27,0.03-0.56,0.1-0.86l0.11-0.62c0.02-0.09-0.02-0.17-0.14-0.22l-0.8-0.24c-0.44-0.11-0.85-0.16-1.25-0.16
	c-0.37,0-0.74,0.04-1.12,0.13c-0.38,0.09-0.77,0.22-1.18,0.41c-0.41,0.19-0.8,0.45-1.18,0.8c-0.38,0.35-0.71,0.75-0.99,1.22
	c-0.81-0.33-1.6-0.5-2.38-0.5c-1.41,0-2.67,0.44-3.76,1.32s-1.8,2-2.11,3.37c-1.12,0.28-2.04,0.87-2.75,1.76
	C4.43,14.74,4.07,15.77,4.07,16.93z M10.46,21.02c0,0.24,0.08,0.44,0.24,0.6c0.16,0.17,0.35,0.25,0.59,0.25
	c0.24,0,0.44-0.08,0.6-0.25s0.24-0.37,0.24-0.6c0-0.22-0.08-0.42-0.24-0.58s-0.36-0.24-0.6-0.24c-0.23,0-0.43,0.08-0.59,0.24
	C10.54,20.6,10.46,20.79,10.46,21.02z M10.46,24.66c0,0.23,0.08,0.42,0.24,0.58c0.16,0.16,0.36,0.24,0.58,0.24
	c0.24,0,0.44-0.08,0.6-0.23c0.16-0.16,0.24-0.35,0.24-0.59c0-0.24-0.08-0.43-0.24-0.59c-0.16-0.16-0.36-0.23-0.6-0.23
	c-0.24,0-0.43,0.08-0.59,0.23C10.54,24.22,10.46,24.42,10.46,24.66z M13.66,22.96c0,0.24,0.08,0.44,0.24,0.59
	c0.16,0.16,0.36,0.24,0.58,0.24c0.24,0,0.44-0.08,0.61-0.24s0.25-0.36,0.25-0.59c0-0.24-0.08-0.44-0.25-0.61s-0.37-0.26-0.61-0.26
	c-0.22,0-0.41,0.09-0.58,0.26S13.66,22.72,13.66,22.96z M13.66,19.32c0,0.24,0.08,0.43,0.24,0.58c0.16,0.16,0.36,0.24,0.58,0.24
	c0.24,0,0.45-0.08,0.61-0.23s0.25-0.35,0.25-0.59c0-0.23-0.08-0.43-0.25-0.6s-0.37-0.25-0.61-0.25c-0.22,0-0.42,0.08-0.58,0.25
	S13.66,19.09,13.66,19.32z M13.66,26.63c0,0.22,0.08,0.41,0.24,0.57c0.17,0.17,0.36,0.25,0.58,0.25c0.24,0,0.44-0.08,0.61-0.24
	c0.17-0.16,0.25-0.35,0.25-0.59c0-0.24-0.08-0.44-0.25-0.61c-0.17-0.17-0.37-0.26-0.61-0.26c-0.22,0-0.41,0.09-0.58,0.26
	C13.75,26.19,13.66,26.4,13.66,26.63z M16.9,21.02c0,0.24,0.08,0.44,0.25,0.6s0.36,0.25,0.6,0.25s0.43-0.08,0.59-0.25
	s0.24-0.37,0.24-0.6c0-0.22-0.08-0.42-0.24-0.58s-0.35-0.24-0.59-0.24s-0.43,0.08-0.6,0.24S16.9,20.79,16.9,21.02z M16.9,24.66
	c0,0.23,0.08,0.42,0.24,0.58c0.16,0.16,0.36,0.24,0.6,0.24s0.43-0.08,0.59-0.24c0.16-0.16,0.23-0.35,0.23-0.59
	c0-0.24-0.08-0.43-0.23-0.59c-0.16-0.16-0.35-0.23-0.59-0.23s-0.44,0.08-0.6,0.23C16.98,24.22,16.9,24.42,16.9,24.66z M17.58,8.77
	c0.31-0.54,0.75-0.96,1.3-1.26S20,7.06,20.59,7.05c0.15,0,0.26,0.01,0.33,0.02v0.31c0,0.97,0.26,1.88,0.78,2.74s1.25,1.51,2.17,1.96
	c-0.16,0.36-0.41,0.72-0.76,1.07c-0.89-0.79-1.96-1.18-3.23-1.18h-0.31C19.3,10.74,18.64,9.68,17.58,8.77z"/>
</svg>
